X:099 
T:Kitty in the Lane (reel)
F:file ID: cre.5/099kitty
B:CRE5.115 (CitÃÂÃÂÃÂÃÂ­ sa BhÃÂÃÂÃÂÃÂ³ithrÃÂÃÂÃÂÃÂ­n)
Q:180
M:4/4
R:reel
K:G
"D modal"
dcAB c2BA|GEED cBce|dcAB c2BA|GEcE  EDD2|
"5"dcAB c2A|GEED c3e|dcAB c2A|GEcE  ED D2:|
"9"Adde fged|cBca gcec|Ad-d2 edcd|eaag edcA|
"13"d2de fged|cA (3Bcd ef g2|afge d2 ed|cAGE ED D2|
"17"Adde f2 ed|~c3A gcec|Ad ~d2 edcd|eaag edcA|
"21"d3A fged|~c3d ef g2|azge fged| cAGE D4-|D8|]

%%%

